X:1
T:Title
%%score { 1 | 2 }
L:1/8
Q:1/4=100
M:4/4
K:F
V:1 treble nm="Grand Piano"
V:2 bass 
V:1
 A2 A2 G2 F2 | F2 A2 c2 d2 | d3 c A2 F2 | [EG]2 [FA]2 [EG]4 | A2 A2 G2 F2 | F2 A2 c2 d2 | %6
w: T.~J.~Cook * * *||||||
 d3 c A2 F2 | [EG]2 [EA]2 F4 | [EG]2 [EG]2 [FA]2 [EG]2 | [Gc]2 d2 e2 [Gc]2 | [FA]3 [Af] e2 d2 | %11
w: |||||
 A2 [DF=B]2 [CEc]4 | A2 A2 G2 F2 | F2 A2 c2 d2 | d3 c A2 F2 |[M:8/4] [EG]2 [EA]2 F4 z8 |] %16
w: |||||
V:2
 [F,CF]2 [F,CF]2 [F,B,C]2 [F,A,C]2 | [F,A,]2 [F,CF]2 [F,A,F]2 [F,B,F]2 | %2
 [F,B,F]3 [F,A,F] [F,CF]2 [F,A,]2 | [C,C]2 [C,C]2 [C,C]4 | [F,CF]2 [F,CF]2 [F,B,D]2 [F,A,C]2 | %5
 [F,A,]2 [F,CF]2 [F,A,F]2 [F,B,F]2 | [F,B,F]3 [F,A,F] [F,CF]2 [F,A,]2 | [C,B,]2 [C,C]2 [F,A,]4 | %8
 [C,C]2 [C,C]2 [C,C]2 [C,C]2 | [E,C]2[K:treble] [G,=B,F]2 [CG]2[K:bass] [E,C]2 | %10
 [F,C]3 [F,C][K:treble] [G,CG]2 [G,=B,F]2 | [G,DF]2[K:bass] G,,2 C,4 | %12
 [F,CF]2 [F,CF]2 [F,B,D]2 [F,A,C]2 | [F,A,]2 [F,CF]2 [F,A,F]2 [F,B,F]2 | %14
 [F,B,F]3 [F,A,F] [F,CF]2 [F,A,]2 |[M:8/4] [C,B,]2 [C,C]2 [F,A,]4 z8 |] %16

